assets/awsbusinessapplications/original.svg

<svg height="74" viewBox="0 0 74 74" width="74" xmlns="http://www.w3.org/2000/svg"><g fill="none" fill-rule="evenodd"><path d="m5 5h64v64h-64z" fill="#dd344c"/><path d="m1 1h72v72h-72z" stroke="#879196" stroke-width="2"/><path d="m38.52 42h-33.04l-2.398-3h37.837zm-32.52-22.842c0-.638.52-1.158 1.159-1.158h2.84v19h-3.999zm8-5.158a1 1 0 0 0 1-1v-4h3v28h-6v-23zm6 23h4v-31h-4zm9-28v4a1 1 0 0 0 1 1h2v23h-6v-28zm7.842 9c.639 0 1.158.52 1.158 1.158v17.842h-4v-19zm7.06 19.567a1 1 0 0 0 -.902-.567h-3v-17.842a3.16 3.16 0 0 0 -3.158-3.158h-2.842v-3a1 1 0 0 0 -1-1h-2v-4a1 1 0 0 0 -1-1h-4v-2a1 1 0 0 0 -1-1h-2v-4h-2v4h-2a1 1 0 0 0 -1 1v2h-4a1 1 0 0 0 -1 1v4h-2a1 1 0 0 0 -1 1v3h-2.841a3.16 3.16 0 0 0 -3.16 3.158v17.842h-2.999a1 1 0 0 0 -.78 1.625l4 5c.19.237.478.375.78.375h34c.305 0 .592-.138.783-.375l4-5c.24-.3.286-.712.12-1.058" fill="#fff" transform="translate(15 15)"/></g></svg>

<svg xmlns="http://www.w3.org/2000/svg" width="74" height="74" viewBox="0 0 74 74"><title>Icon-Architecture-Category/48/Business-Applications_48</title><g id="Icon-Architecture-Category/48/Business-Applications_48" fill="none" fill-rule="evenodd" stroke="none" stroke-width="1"><path id="Rectangle" fill="#dd344c" d="M5 5h64v64H5z"/><path id="#879196-Border-Copy-5" stroke="#879196" stroke-width="2" d="M1 1h72v72H1z"/><g id="Icon-Category/48/Business-Application_48" fill="#fff" transform="translate(15 15)"><path id="Business-Application_Category-Icon_48_Squid--" d="M38.52 42H5.48l-2.398-3h37.837zM6 19.158C6 18.52 6.52 18 7.159 18h2.84v19H6zM14 14a1 1 0 0 0 1-1V9h3v28h-6V14zm6 23h4V6h-4zm9-28v4a1 1 0 0 0 1 1h2v23h-6V9zm7.842 9c.639 0 1.158.52 1.158 1.158V37h-4V18zm7.06 19.567A1 1 0 0 0 43 37h-3V19.158A3.16 3.16 0 0 0 36.842 16H34v-3a1 1 0 0 0-1-1h-2V8a1 1 0 0 0-1-1h-4V5a1 1 0 0 0-1-1h-2V0h-2v4h-2a1 1 0 0 0-1 1v2h-4a1 1 0 0 0-1 1v4h-2a1 1 0 0 0-1 1v3H7.159a3.16 3.16 0 0 0-3.16 3.158V37H1a1 1 0 0 0-.78 1.625l4 5c.19.237.478.375.78.375h34c.305 0 .592-.138.783-.375l4-5c.24-.3.286-.712.12-1.058"/></g></g></svg>
